!!!!SEGMENT: pl-kk--kk-i-2--022_anonim--ave-sanctissima-maria.krn
!!!cenid: 16xx:1640
!!!COM: Anonim
!!!COM-rismid: pe30004985
!!!CDT:
!!!CNT:
!!!OTL: Ave sanctissima Maria
!!!PDT:
!!!AGN: Sacred
!!!SMS-siglum: PL-Kk
!!!SMS-shelfmark: Kk.I.2
!!!SMS-shelfwork: 022 W
!!!SMS-variant:
!!!SMS-altvar:
!!!NIFC-rismid: 300258038
!!!URL-scan: http://repozytorium.nifc.pl/skany/pl-kk-nut--i-2
!!!ONB-nifc: skany: C: 0050; A: 0152-0153; T: 0255; B: 0353;
!!!OMD:
!!!AIN: 1 alto 1 bass 2 tenor
!!!key: f:hypolyd
**kern	**text	**kern	**text	**kern	**text	**kern	**text
*part4	*part4	*part3	*part3	*part2	*part2	*part1	*part1
*staff4	*staff4	*staff3	*staff3	*staff2	*staff2	*staff1	*staff1
*I"BASVS	*	*I"TENOR	*	*I"ALTVS	*	*I"DISCANTVS	*
*I'B	*	*I'T 2	*	*I'T 1	*	*I'A	*
*Ibass	*	*Itenor	*	*Itenor	*	*Ialto	*
*ICvox	*	*ICvox	*	*ICvox	*	*ICvox	*
*clefF4	*	*clefC4	*	*clefC4	*	*clefC3	*
*k[b-]	*	*k[b-]	*	*k[b-]	*	*k[b-]	*
*F:	*	*F:	*	*F:	*	*F:	*
*M2/1	*	*M2/1	*	*M2/1	*	*M2/1	*
*met(C|)	*	*met(C|)	*	*met(C|)	*	*met(C|)	*
=1-	=1-	=1-	=1-	=1-	=1-	=1-	=1-
!!LO:TX:t=P:problem:oddech jako rozdzielacz słów na różnej wysokości:global
!LO:TX:t=P:problem=kreska pseudotaktowa	!	!	!	!	!	!LO:TX:t=P:problem=kreska pseudotaktowa	!
*	*	*lig	*	*	*	*	*
1r	.	1F	A-	00r	.	00r	.
*lig	*	*	*	*	*	*	*
1C	A-	1G	.	.	.	.	.
*	*	*Xlig	*	*	*	*	*
=2-	=2-	=2-	=2-	=2-	=2-	=2-	=2-
!LO:TX:t=P:problem=kreska pseudotaktowa	!	!LO:TX:t=P:problem=kreska pseudotaktowa	!	!	!	!	!
1D	.	1F	-ve	.	.	.	.
*Xlig	*	*lig	*	*	*	*	*
2C,</	-ve	1G	San-	.	.	.	.
4D/	san-	.	.	.	.	.	.
4E\	-ctiſ-	.	.	.	.	.	.
=3-	=3-	=3-	=3-	=3-	=3-	=3-	=3-
!	!	!	!	!LO:TX:t=P:problem=kreska pseudotaktowa	!	!	!
*	*	*	*	*	*	*lig	*
2.F\	.	1A	.	1r	.	1c	A-
!LO:TX:t=P:problem=kreska pseudotaktowa	!	!	!	!	!	!	!
4E\	.	.	.	.	.	.	.
*	*	*Xlig	*	*	*	*	*
*	*	*lig	*	*lig	*	*	*
4D/	.	1B-	-ctiſ-	1F	A-	1d	.
4C/	.	.	.	.	.	.	.
2.BB-/	.	.	.	.	.	.	.
*	*	*	*	*	*	*Xlig	*
=4-	=4-	=4-	=4-	=4-	=4-	=4-	=4-
.	.	1G	.	1G	.	2c/	-ve
4AA/	.	.	.	.	.	.	.
!LO:TX:t=P:problem=kreska pseudotaktowa	!	!	!	!	!	!	!
2GG/	.	.	.	.	.	4d\	San-
!	!	!	!	!	!	!LO:TX:t=P:problem=kreska pseudotaktowa	!
.	.	.	.	.	.	4e\	.
*	*	*Xlig	*	*Xlig	*	*	*
*	*	*lig	*	*	*	*	*
2D/	.	1A	-si-	2F/	-VE	2.f\	-ctiſ-
4E\	.	.	.	4G/	San-	.	.
!	!	!	!	!LO:TX:t=P:problem=kreska pseudotaktowa	!	!	!
4F\	.	.	.	4A/	.	4f\	.
=5-	=5-	=5-	=5-	=5-	=5-	=5-	=5-
2G\	.	1G	.	2.B-\	.	4e\	.
.	.	.	.	.	.	4d\	.
2GG/	.	.	.	.	.	1d	.
!	!	!	!	!LO:TX:t=P:problem=kreska pseudotaktowa	!	!	!
.	.	.	.	4B-\	-ctiſ-	.	.
*	*	*Xlig	*	*	*	*	*
2.AA/	.	1E	-si-	4A/	-si-	.	.
.	.	.	.	4G/	-ma	.	.
!	!	!	!	!	!	!LO:TX:t=P:problem=kreska pseudotaktowa	!
.	.	.	.	2.A/	Ma-	2c#X/	-si-
4AA/	-si-	.	.	.	.	.	.
=6-	=6-	=6-	=6-	=6-	=6-	=6-	=6-
!	!	!LO:TX:t=P:problem=kreska pseudotaktowa	!	!	!	!	!
2DD,</	-ma	1F	-ma	.	.	2d,\	-ma
.	.	.	.	4G/	-ri-	.	.
!LO:TX:t=P:problem=kreska pseudotaktowa	!	!	!	!	!	!LO:TX:t=P:problem=kreska pseudotaktowa	!
2D/	Ma-	.	.	4A/	.	2d\	Ma-
!	!	!	!	!LO:TX:t=P:problem=kreska pseudotaktowa	!	!	!
.	.	.	.	4B-\	.	.	.
2.C/	-ri-	1G	Ma-	4c\	.	2.e\	-ri-
.	.	.	.	8B-\L	.	.	.
.	.	.	.	8A\J	.	.	.
.	.	.	.	4G/	.	.	.
!	!	!	!	!LO:TX:t=P:problem=kreska pseudotaktowa	!	!	!
8BB-/L	.	.	.	4A/	.	4f\	.
8AA/J	.	.	.	.	.	.	.
=7-	=7-	=7-	=7-	=7-	=7-	=7-	=7-
*	*	*lig	*	*	*	*	*
4GG/	.	1G	-ri-	4B-\	.	4g\	.
4AA/	.	.	.	4c\	.	8f\L	.
.	.	.	.	.	.	8e\J	.
4BB-/	.	.	.	4d\	.	4d\	.
!	!	!	!	!	!	!LO:TX:t=P:problem=kreska pseudotaktowa	!
4C/	.	.	.	8c\L	.	4e\	.
!	!	!	!	!LO:TX:t=P:problem=kreska pseudotaktowa	!	!	!
.	.	.	.	8B-\J	.	.	.
1D	.	1F	.	2.A/	.	4f\	.
.	.	.	.	.	.	4g\	.
.	.	.	.	.	.	2.a\	.
.	.	.	.	4B-\	.	.	.
*	*	*Xlig	*	*	*	*	*
=8-	=8-	=8-	=8-	=8-	=8-	=8-	=8-
*custos:FF	*	*	*	*	*	*	*
!LO:TX:t=P:problem=kreska pseudotaktowa	!	!	!	!	!	!	!
*	*	*lig	*	*	*	*	*
1C,<	-a	1E	.	4c\	.	.	.
.	.	.	.	8B-\L	.	8g\L	.
.	.	.	.	8A\J	.	8f\J	.
!	!	!	!	!LO:TX:t=P:problem=kreska pseudotaktowa	!	!	!
.	.	.	.	2G/	.	4e\	.
.	.	.	.	.	.	8d\L	.
!	!	!	!	!	!	!LO:TX:t=P:problem=kreska pseudotaktowa	!
.	.	.	.	.	.	8e\J	.
*	*	*	*	*custos:F	*	*	*
!	!	!	!	!LO:TX:t=P:problem=kreska pseudotaktowa	!	!	!
!LO:LB:g=original	!	!	!	!	!	!	!
00r	.	1F	.	1A	-a	4d\	.
.	.	.	.	.	.	8cny/L	.
!	!	!	!	!	!	!LO:N:acc=#	!
.	.	.	.	.	.	8Bn/J	.
.	.	.	.	.	.	2.c/	.
*	*	*Xlig	*	*	*	*	*
=9-	=9-	=9-	=9-	=9-	=9-	=9-	=9-
*	*	*lig	*	*lig	*	*	*
!	!	!	!	!LO:LB:g=original	!	!	!
.	.	1D	-a	1F	Ma-	.	.
!	!	!	!	!	!	!LO:N:acc=#	!
.	.	.	.	.	.	8Bn/L	.
*	*	*	*	*	*	*custos:B	*
.	.	.	.	.	.	8A/J	.
!	!	!	!	!	!	!LO:TX:t=P:problem=kreska pseudotaktowa	!
!	!	!	!	!	!	!LO:LB:g=original	!
.	.	.	.	.	.	2B/	.
!	!	!LO:TX:t=P:problem=kreska pseudotaktowa	!	!	!	!	!
.	.	1C	.	1G	.	2c/	a
*	*	*	*	*	*	*lig	*
.	.	.	.	.	.	1c/	Ma-
*	*	*Xlig	*	*Xlig	*	*	*
=10-	=10-	=10-	=10-	=10-	=10-	=10-	=10-
*	*	*lig	*	*lig	*	*	*
.	.	1F	ma-	1A	-ter	.	.
.	.	.	.	.	.	1d	.
!LO:TX:t=P:problem=kreska pseudotaktowa	!	!	!	!	!	!	!
1r	.	1G	.	1B-	.	.	.
*	*	*Xlig	*	*Xlig	*	*Xlig	*
!	!	!	!	!	!	!LO:TX:t=P:problem=kreska pseudotaktowa	!
.	.	.	.	.	.	2e\	-ter
=11-	=11-	=11-	=11-	=11-	=11-	=11-	=11-
*lig	*	*lig	*	*	*	*	*
1FF	ma-	1A	-ter	2c\	.	2.f\	De-
.	.	.	.	1d	De-	.	.
.	.	.	.	.	.	4e\	.
!	!	!LO:TX:t=P:problem=kreska pseudotaktowa	!	!	!	!	!
1GG	.	1B-	.	.	.	4d\	.
.	.	.	.	.	.	4c/	.
!	!	!	!	!	!	!LO:TX:t=P:problem=kreska pseudotaktowa	!
.	.	.	.	4c\	.	2d\	.
!	!	!	!	!LO:TX:t=P:problem=kreska pseudotaktowa	!	!	!
.	.	.	.	4B-\	.	.	.
*Xlig	*	*Xlig	*	*	*	*	*
=12-	=12-	=12-	=12-	=12-	=12-	=12-	=12-
*	*	*lig	*	*	*	*	*
1AA	.	1c	De-	4A/	.	1c	-i
.	.	.	.	4G/	.	.	.
.	.	.	.	4F/	.	.	.
!	!	!	!	!LO:TX:t=P:problem=kreska pseudotaktowa	!	!	!
.	.	.	.	4E/	.	.	.
!LO:TX:t=P:problem=kreska pseudotaktowa	!	!	!	!	!	!	!
1BB-	-ter	1B-	.	2D/	.	2d\	ma-
.	.	.	.	2.G/	.	2d\	-ter
*	*	*Xlig	*	*	*	*	*
=13-	=13-	=13-	=13-	=13-	=13-	=13-	=13-
*	*	*lig	*	*	*	*	*
0C	De-	1A	.	.	.	0c	De-
.	.	.	.	8F/L	.	.	.
.	.	.	.	8E/J	.	.	.
!	!	!	!	!LO:TX:t=P::problem=kreska pseudotaktowa&colon;między nutą a kropką	!	!	!
.	.	.	.	2.F/	.	.	.
.	.	1G	.	.	.	.	.
.	.	.	.	8E/L	.	.	.
.	.	.	.	8D/J	.	.	.
.	.	.	.	2E/	.	.	.
*	*	*Xlig	*	*	*	*	*
=14-	=14-	=14-	=14-	=14-	=14-	=14-	=14-
!	!	!LO:TX:t=P:problem=kreska pseudotaktowa	!	!LO:TX:t=P:problem=kreska pseudotaktowa	!	!LO:TX:t=P:problem=kreska pseudotaktowa	!
2FF,</	-i	1A	-i	1F	-i	0A	-i
!LO:TX:t=P:problem=kreska pseudotaktowa	!	!	!	!	!	!	!
2F\	Re-	.	.	.	.	.	.
*	*	*custos:c	*	*	*	*	*
2F\	-gi-	1c	Re-	2r	.	.	.
!LO:TX:t=P:problem=kreska pseudotaktowa	!	!	!	!	!	!	!
2C/	-na	.	.	2c\	Re-	.	.
=15-	=15-	=15-	=15-	=15-	=15-	=15-	=15-
!	!	!LO:LB:g=original	!	!	!	!	!
2.F\	coe-	1c	-gi-	2c\	-gi-	2r	.
!	!	!	!	!LO:TX:t=P:problem=kreska pseudotaktowa	!	!	!
.	.	.	.	2F/	-na	2f\	Re-
4G\	.	.	.	.	.	.	.
!	!	!LO:TX:t=P:problem=kreska pseudotaktowa	!	!	!	!	!
4A\	.	1F	-na	2.c\	cae-	2f\	-gi-
4B-\	.	.	.	.	.	.	.
!LO:TX:t=P::problem=kreska pseudotaktowa&colon;między nutą a kropką	!	!	!	!	!	!LO:TX:t=P:problem=kreska pseudotaktowa	!
2.c\	.	.	.	.	.	2c/	-na
.	.	.	.	4B-\	.	.	.
=16-	=16-	=16-	=16-	=16-	=16-	=16-	=16-
.	.	1c	coe-	4A/	.	2.f\	Cae-
4B-\	.	.	.	4G/	.	.	.
!	!	!	!	!LO:TX:t=P::problem=kreska pseudotaktowa&colon;między nutą a kropką	!	!	!
4A\	.	.	.	2.A/	.	.	.
4G\	.	.	.	.	.	4e\	.
!LO:TX:t=P:problem=kreska pseudotaktowa	!	!LO:TX:t=P:problem=kreska pseudotaktowa	!	!	!	!	!
1F	-li	1c	-li	.	.	4f\	.
.	.	.	.	4B-\	.	4g\	.
.	.	.	.	1c\	.	1a\	.
=17-	=17-	=17-	=17-	=17-	=17-	=17-	=17-
*	*	*lig	*	*	*	*	*
00r	.	1d	por-	.	.	.	.
!	!	!	!	!LO:TX:t=P:problem=kreska pseudotaktowa	!	!	!
!	!	!	!	!LO:N:acc=#	!	!	!
.	.	.	.	2Bn\	.	4g\	.
!	!	!	!	!	!	!LO:TX:t=P:problem=kreska pseudotaktowa	!
.	.	.	.	.	.	4f\	.
*	*	*	*	*custos:d	*	*	*
!	!	!	!	!LO:TX:t=P:problem=kreska pseudotaktowa	!	!	!
.	.	1c	.	1c	-li	2e\	-li
*	*	*	*	*	*	*lig	*
.	.	.	.	.	.	1a\	por-
*	*	*Xlig	*	*	*	*	*
=18-	=18-	=18-	=18-	=18-	=18-	=18-	=18-
*	*	*lig	*	*lig	*	*	*
!	!	!	!	!LO:LB:g=original	!	!	!
.	.	1B-	.	1d	por-	.	.
*	*	*	*	*	*	*col	*
.	.	.	.	.	.	2.g\	.
.	.	1A	.	1c	.	.	.
*	*	*Xlig	*	*Xlig	*	*Xlig	*
.	.	.	.	.	.	4g\	-ta
*	*	*	*	*	*	*Xcol	*
.	.	.	.	.	.	1f\	pa-
=19-	=19-	=19-	=19-	=19-	=19-	=19-	=19-
!LO:TX:t=P:problem=kreska pseudotaktowa	!	!	!	!	!	!	!
1r	.	1G	.	1B-y	.	.	-ra-
!	!	!	!	!	!	!LO:TX:t=P:problem=kreska pseudotaktowa	!
.	.	.	.	.	.	2e\	-di-
!	!	!LO:TX:t=P:problem=kreska pseudotaktowa	!	!	!	!	!
2r	.	1A,<	-ta	2A/	-ta	2.f\	.
*lig	*	*	*	*	*	*	*
!	!	!	!	!LO:TX:t=P::problem=kreska pseudotaktowa&colon;między nutą a kropką	!	!	!
1D\	por-	.	.	2.F/	pa-	.	.
!	!	!	!	!	!	!LO:TX:t=P:problem=kreska pseudotaktowa	!
.	.	.	.	.	.	4g\	.
=20-	=20-	=20-	=20-	=20-	=20-	=20-	=20-
.	.	1A	Pa-	.	.	4a\	.
.	.	.	.	4G/	.	8g\L	.
*	*	*	*	*	*	*custos:e	*
.	.	.	.	.	.	8f\J	.
!	!	!	!	!	!	!LO:LB:g=original	!
1C	.	.	.	4A/	.	4e\	.
!	!	!	!	!	!	!LO:TX:t=P:problem=kreska pseudotaktowa	!
.	.	.	.	4B-\	.	4d\	.
.	.	1G	-ra-	2c\	.	4e\	.
.	.	.	.	.	.	4f\	.
*Xlig	*	*	*	*	*	*	*
!	!	!	!	!LO:TX:t=P::problem=kreska pseudotaktowa&colon;między nutą a kropką	!	!	!
4BB-/	.	.	.	2.d\	-ra-	2.g\	.
!LO:TX:t=P:problem=kreska pseudotaktowa	!	!	!	!	!	!	!
4AA/	.	.	.	.	.	.	.
=21-	=21-	=21-	=21-	=21-	=21-	=21-	=21-
*	*	*lig	*	*	*	*	*
4GG/	.	1G	-di-	.	.	.	.
4AA/	.	.	.	4c\	.	8f\L	.
.	.	.	.	.	.	8e\J	.
4BB-/	.	.	.	2B-\	.	4d\	.
!	!	!	!	!	!	!LO:TX:t=P:problem=kreska pseudotaktowa	!
4C/	.	.	.	.	.	4e\	.
*	*	*	*	*lig	*	*	*
4D/	.	1F	.	1A	-di-	4f\	.
4E\	.	.	.	.	.	8e\L	.
.	.	.	.	.	.	8d\J	.
!LO:TX:t=P:problem=kreska pseudotaktowa	!	!	!	!	!	!	!
2F\	.	.	.	.	.	2.c/	.
*	*	*Xlig	*	*	*	*	*
=22-	=22-	=22-	=22-	=22-	=22-	=22-	=22-
*custos:D	*	*	*	*	*	*	*
!LO:TX:t=P:problem=kreska pseudotaktowa	!	!	!	!	!	!	!
*	*	*lig	*	*	*	*	*
1C,<	-ta	1E	.	1G	.	.	.
.	.	.	.	.	.	8B-y/L	.
.	.	.	.	.	.	8A/J	.
.	.	.	.	.	.	4G/	.
.	.	.	.	.	.	4A/	.
*	*	*	*	*Xlig	*	*	*
!LO:LB:g=original	!	!	!	!LO:TX:t=P:problem=kreska pseudotaktowa	!	!LO:TX:t=P:problem=kreska pseudotaktowa	!
2D/	pa-	1F	.	0F	-si	4B-/	.
.	.	.	.	.	.	8A/L	.
.	.	.	.	.	.	8B-/J	.
2AA/	-ra-	.	.	.	.	4c/	.
.	.	.	.	.	.	8d\L	.
!	!	!	!	!	!	!LO:TX:t=P:problem=kreska pseudotaktowa	!
.	.	.	.	.	.	8c\J	.
*	*	*Xlig	*	*	*	*	*
=23-	=23-	=23-	=23-	=23-	=23-	=23-	=23-
*	*	*lig	*	*	*	*	*
1BB-	-di-	1D	-si	.	.	2B-/	.
.	.	.	.	.	.	4A/	.
.	.	.	.	.	.	4G/	.
!LO:TX:t=P:problem=kreska pseudotaktowa	!	!LO:TX:t=P:problem=kreska pseudotaktowa	!	!	!	!LO:TX:t=P:problem=kreska pseudotaktowa	!
0FF	-si	1C	.	2r	.	0A	-si
*	*	*	*	*lig	*	*	*
.	.	.	.	1c\	Do-	.	.
*	*	*Xlig	*	*	*	*	*
=24-	=24-	=24-	=24-	=24-	=24-	=24-	=24-
*	*	*lig	*	*	*	*	*
.	.	1F	Do-	.	.	.	.
.	.	.	.	1d	.	.	.
0r	.	1G	.	.	.	00r	.
*	*	*Xlig	*	*Xlig	*	*	*
.	.	.	.	4c\	-mi-	.	.
!	!	!	!	!LO:TX:t=P:problem=kreska pseudotaktowa	!	!	!
.	.	.	.	4B-\	-na	.	.
=25-	=25-	=25-	=25-	=25-	=25-	=25-	=25-
.	.	1F	-mi-	4A/	mun-	.	.
.	.	.	.	4B-\	.	.	.
.	.	.	.	4c\	.	.	.
.	.	.	.	4d\	.	.	.
*lig	*	*	*	*	*	*	*
!	!	!LO:TX:t=P:problem=kreska pseudotaktowa	!	!	!	!	!
1F	Do-	1F	-na	4c\	.	.	.
.	.	.	.	4B-\	.	.	.
.	.	.	.	4A/	.	.	.
.	.	.	.	8G/L	.	.	.
!	!	!	!	!LO:TX:t=P:problem=kreska pseudotaktowa	!	!	!
.	.	.	.	8F/J	.	.	.
=26-	=26-	=26-	=26-	=26-	=26-	=26-	=26-
*	*	*lig	*	*	*	*	*
1G	.	1C	mun-	4E/	.	.	.
.	.	.	.	2F/	.	.	.
.	.	.	.	4E/	.	.	.
*Xlig	*	*	*	*	*	*	*
!	!	!	!	!LO:TX:t=P:problem=kreska pseudotaktowa	!	!	!
*	*	*	*	*	*	*lig	*
2F\	.	1D	.	1F	-di	1f	Do-
4E\	-mi-	.	.	.	.	.	.
!LO:TX:t=P:problem=kreska pseudotaktowa	!	!	!	!	!	!	!
4D/	-na	.	.	.	.	.	.
*	*	*Xlig	*	*	*	*	*
=27-	=27-	=27-	=27-	=27-	=27-	=27-	=27-
*lig	*	*lig	*	*	*	*	*
1C	mun-	1E	.	2.c\	Do-	1g	.
*	*	*	*	*custos:a	*	*	*
!	!	!	!	!LO:TX:t=P:problem=kreska pseudotaktowa	!	!	!
.	.	.	.	4B-\	.	.	.
*	*	*	*	*	*	*Xlig	*
!	!	!	!	!LO:LB:g=original	!	!	!
1D	.	1F	.	4A/	.	2f\	.
.	.	.	.	4G/	.	.	.
.	.	.	.	4A/	.	4e\	-mi-
!	!	!	!	!LO:TX:t=P:problem=kreska pseudotaktowa	!	!LO:TX:t=P:problem=kreska pseudotaktowa	!
.	.	.	.	4B-\	.	4d\	-na
*Xlig	*	*Xlig	*	*	*	*	*
=28-	=28-	=28-	=28-	=28-	=28-	=28-	=28-
2C/	.	1G	.	2c\	.	2e\	mun-
2BB-/	.	.	.	4d\	-mi-	1f	.
!	!	!	!	!LO:TX:t=P:problem=kreska pseudotaktowa	!	!	!
.	.	.	.	4d\	-na	.	.
*	*	*lig	*	*	*	*	*
1C	.	1G	-di.	2.c\	mun-	.	.
!	!	!	!	!	!	!LO:TX:t=P:problem=kreska pseudotaktowa	!
.	.	.	.	.	.	2e\	.
.	.	.	.	4B-\	.	.	.
=29-	=29-	=29-	=29-	=29-	=29-	=29-	=29-
*	*	*custos:c	*	*	*	*	*
!	!	!LO:TX:t=P:problem=kreska pseudotaktowa	!	!	!	!	!
!LO:TX:t=P:problem=kreska pseudotaktowa	!	!	!	!LO:TX:t=P:problem=kreska pseudotaktowa	!	!	!
0.FF	-di.	1F	.	0A	-di.	2f\	-di
.	.	.	.	.	.	1c	Tu
*	*	*Xlig	*	*	*	*	*
*	*	*lig	*	*	*	*	*
!	!	!LO:LB:g=original	!	!	!	!	!
.	.	1c	Tu	.	.	.	.
*	*	*	*	*	*	*custos:f	*
!	!	!	!	!	!	!LO:TX:t=P:problem=kreska pseudotaktowa	!
.	.	.	.	.	.	2A/	es
=30-	=30-	=30-	=30-	=30-	=30-	=30-	=30-
!	!	!	!	!	!	!LO:LB:g=original	!
.	.	1A	.	0r	.	2r	.
.	.	.	.	.	.	1f	tu
*	*	*Xlig	*	*	*	*	*
!	!	!LO:TX:t=P:problem=kreska pseudotaktowa	!	!	!	!	!
1r	.	1B-	es	.	.	.	.
!	!	!	!	!	!	!LO:TX:t=P:problem=kreska pseudotaktowa	!
.	.	.	.	.	.	2d\	es
=31-	=31-	=31-	=31-	=31-	=31-	=31-	=31-
*	*	*lig	*	*	*	*	*
2r	.	1c	sin-	1r	.	4e\	sin-
.	.	.	.	.	.	4f\	-gu-
1C	Tu	.	.	.	.	2g\	-la-
!	!	!	!	!	!	!LO:TX:t=P:problem=kreska pseudotaktowa	!
.	.	1A	.	2r	.	1c	-ris
!LO:TX:t=P:problem=kreska pseudotaktowa	!	!	!	!	!	!	!
2AA/	es	.	.	1F/	Tu	.	.
*	*	*Xlig	*	*	*	*	*
=32-	=32-	=32-	=32-	=32-	=32-	=32-	=32-
4BB-/	sin-	1F	-gu-	.	.	4d\	sin-
4C/	-gu-	.	.	.	.	4e\	-gu-
!	!	!	!	!LO:TX:t=P:problem=kreska pseudotaktowa	!	!LO:TX:t=P:problem=kreska pseudotaktowa	!
2D/	-la-	.	.	2D/	es	2f\	-la-
*	*	*lig	*	*	*	*	*
2C/	-ris	1G	-la-	4E/	sin-	2e\	-ris
.	.	.	.	4F/	-gu-	.	.
!	!	!	!	!LO:TX:t=P:problem=kreska pseudotaktowa	!	!	!
1BB-/	Vir-	.	.	2G/	-la-	1d\	Vir-
=33-	=33-	=33-	=33-	=33-	=33-	=33-	=33-
.	.	1F	.	2D/	-ris	.	.
!LO:TX:t=P:problem=kreska pseudotaktowa	!	!	!	!	!	!LO:TX:t=P:problem=kreska pseudotaktowa	!
2AA/	-go	.	.	2.F/	Vir-	2c/	-go
*	*	*Xlig	*	*	*	*	*
1GG	pu-	1G	.	.	.	2.B-/	pu-
.	.	.	.	4F/	-go	.	.
!	!	!	!	!LO:TX:t=P:problem=kreska pseudotaktowa	!	!	!
.	.	.	.	2E/	pu-	.	.
.	.	.	.	.	.	8c/L	.
.	.	.	.	.	.	8B-/J	.
=34-	=34-	=34-	=34-	=34-	=34-	=34-	=34-
!	!	!LO:TX:t=P:problem=kreska pseudotaktowa	!	!	!	!	!
1.FF	-ra	1A,<	-ris	2F/	-ra	2.A/	.
.	.	.	.	2.c\	Vir-	.	.
!	!	!	!	!	!	!LO:TX:t=P:problem=kreska pseudotaktowa	!
.	.	.	.	.	.	4G/	.
.	.	1A	Vir-	.	.	4A/	.
.	.	.	.	4B-\	.	4B-/	.
!LO:TX:t=P::problem=kreska pseudotaktowa&colon;między nutą a kropką	!	!	!	!LO:TX:t=P::problem=kreska pseudotaktowa&colon;między nutą a kropką	!	!LO:TX:t=P:problem=kreska pseudotaktowa	!
2.F\	Vir-	.	.	2.A/	.	2c/	.
=35-	=35-	=35-	=35-	=35-	=35-	=35-	=35-
!	!	!LO:TX:t=P:problem=kreska pseudotaktowa	!	!	!	!	!
.	.	1D	-go	.	.	2d\	-ra
*custos:D	*	*	*	*	*	*	*
4E\	.	.	.	4G/	.	.	.
!LO:TX:t=P::problem=kreska pseudotaktowa&colon;między nutą a kropką	!	!	!	!	!	!	!
!LO:LB:g=original	!	!	!	!	!	!	!
2.D/	.	.	.	2A/	.	2.f\	Vir-
*	*	*lig	*	*	*	*	*
.	.	1F	pu-	2D/	-go	.	.
4C/	.	.	.	.	.	4e\	-go
!	!	!	!	!	!	!LO:TX:t=P::problem=kreska pseudotaktowa&colon;między nutą a kropką	!
1BB-/	.	.	.	1d\	pu-	2.d\	pu-
=36-	=36-	=36-	=36-	=36-	=36-	=36-	=36-
.	.	1G	.	.	.	.	.
.	.	.	.	.	.	8e\L	.
.	.	.	.	.	.	8f\J	.
4AA/	-go	.	.	4c\	.	2.g\	.
!LO:TX:t=P:problem=kreska pseudotaktowa	!	!	!	!	!	!	!
4GG/	.	.	.	4B-\	.	.	.
!	!	!	!	!LO:TX:t=P:problem=kreska pseudotaktowa	!	!	!
*	*	*Xlig	*	*	*	*	*
*	*	*lig	*	*	*	*	*
0.AA	pu-	1E	.	00A/	.	.	.
.	.	.	.	.	.	4f\	.
!	!	!	!	!	!	!LO:TX:t=P::problem=kreska pseudotaktowa&colon;między nutą a kropką	!
.	.	.	.	.	.	2.e\	.
=37-	=37-	=37-	=37-	=37-	=37-	=37-	=37-
.	.	1F	.	.	.	.	.
.	.	.	.	.	.	8d\L	.
.	.	.	.	.	.	8c#X\J	.
.	.	.	.	.	.	2.d\	.
*	*	*Xlig	*	*	*	*	*
*	*	*lig	*	*	*	*	*
.	.	1E	-ra.	.	.	.	.
.	.	.	.	.	.	8c#X/L	.
!	!	!	!	!	!	!LO:N:acc=#	!
.	.	.	.	.	.	8Bn/J	.
*	*	*	*	*	*	*custos:d	*
.	.	.	.	.	.	2c#/	.
=38-	=38-	=38-	=38-	=38-	=38-	=38-	=38-
!LO:TX:t=P:problem=kreska pseudotaktowa	!	!LO:TX:t=P:problem=kreska pseudotaktowa	!	!	!	!LO:TX:t=P:problem=kreska pseudotaktowa	!
!	!	!	!	!	!	!LO:LB:g=original	!
0D	-ra.	1D	.	.	.	0d	-ra
*	*	*Xlig	*	*	*	*	*
*	*	*	*	*custos:a	*	*	*
!	!	!	!	!LO:TX:t=P:problem=kreska pseudotaktowa	!	!	!
!	!	!LO:TX:t=P:problem=kreska pseudotaktowa	!	!	!	!	!
.	.	1A	Tu	0D	-ra.	.	.
=39-	=39-	=39-	=39-	=39-	=39-	=39-	=39-
2r	.	1A	con-	.	.	00r	.
1D	Tu	.	.	.	.	.	.
!	!	!	!	!LO:LB:g=original	!	!	!
.	.	1A	-ce-	00r	.	.	.
4D/	con-	.	.	.	.	.	.
!LO:TX:t=P:problem=kreska pseudotaktowa	!	!	!	!	!	!	!
4D/	-ce-	.	.	.	.	.	.
=40-	=40-	=40-	=40-	=40-	=40-	=40-	=40-
2D/	-pis-	1A	-pis-	.	.	.	.
2C/	-ti	.	.	.	.	.	.
!	!	!LO:TX:t=P:problem=kreska pseudotaktowa	!	!	!	!	!
2E-X\	IE-	1G	-ti	.	.	.	.
4D/	.	.	.	.	.	.	.
!LO:TX:t=P:problem=kreska pseudotaktowa	!	!	!	!	!	!	!
4C/	.	.	.	.	.	.	.
=41-	=41-	=41-	=41-	=41-	=41-	=41-	=41-
*	*	*lig	*	*	*	*	*
4D/	.	1B-	IE-	.	.	2d\	Tu
4GG/	.	.	.	.	.	.	.
2G\	.	.	.	.	.	4d\	con-
!	!	!	!	!	!	!LO:TX:t=P:problem=kreska pseudotaktowa	!
.	.	.	.	.	.	4d\	-ce-
2D/	-sum,	1A	.	0r	.	2d\	-pis-
!LO:TX:t=P:problem=kreska pseudotaktowa	!	!	!	!	!	!	!
2F\	tu	.	.	.	.	2cny/	-ti
!	!	!	!	!	!	!LO:TX:t=P:problem=kreska pseudotaktowa	!
*	*	*Xlig	*	*	*	*	*
=42-	=42-	=42-	=42-	=42-	=42-	=42-	=42-
4C/	con-	1G	.	.	.	2e-X\	JE-
4D/	-ce-	.	.	.	.	.	.
2E-X\	-pi-	.	.	.	.	4d\	.
!	!	!	!	!	!	!LO:TX:t=P:problem=kreska pseudotaktowa	!
.	.	.	.	.	.	4c/	.
*	*	*custos:a	*	*	*	*	*
!	!	!LO:TX:t=P:problem=kreska pseudotaktowa	!	!	!	!	!
!	!	!	!	!LO:TX:t=P:problem=kreska pseudotaktowa	!	!	!
2D/	-sti	1A	-SVM	1r	.	2.d\	.
2.F\	Je-	.	.	.	.	.	.
.	.	.	.	.	.	4e-\	.
=43-	=43-	=43-	=43-	=43-	=43-	=43-	=43-
!	!	!LO:LB:g=original	!	!	!	!	!
.	.	1A	si-	2r	.	2.f\	.
4Eny\	.	.	.	.	.	.	.
!	!	!	!	!LO:TX:t=P:problem=kreska pseudotaktowa	!	!	!
4D/	.	.	.	2A/	Tu	.	.
!LO:TX:t=P:problem=kreska pseudotaktowa	!	!	!	!	!	!LO:TX:t=P:problem=kreska pseudotaktowa	!
4C/	.	.	.	.	.	4eny\	.
!	!	!LO:TX:t=P:problem=kreska pseudotaktowa	!	!	!	!	!
2.D/	.	1F	-ne	4A/	con-	2d,<\	-SVM
.	.	.	.	4A/	-ce-	.	.
!	!	!	!	!LO:TX:t=P:problem=kreska pseudotaktowa	!	!	!
.	.	.	.	2A/	-pis-	2A/	tu
*custos:BB	*	*	*	*	*	*	*
4C/	.	.	.	.	.	.	.
=44-	=44-	=44-	=44-	=44-	=44-	=44-	=44-
!LO:LB:g=original	!	!	!	!	!	!	!
4BB-/	.	1G	pec-	2G/	-ti	4B-y/	con-
4AA/	.	.	.	.	.	4c/	-ce-
!LO:TX:t=P:problem=kreska pseudotaktowa	!	!	!	!	!	!	!
2GG/	.	.	.	2.B-\	Ie-	2.d\	-piſ-
*	*	*lig	*	*	*	*	*
1D,<	-sum	1F	-ca-	.	.	.	.
.	.	.	.	8A/L	.	4e\	-ti
.	.	.	.	8G/J	.	.	.
!	!	!	!	!LO:TX:t=P::problem=kreska pseudotaktowa&colon;między nutą a kropką	!	!LO:TX:t=P:problem=kreska pseudotaktowa	!
.	.	.	.	2.A/	.	2f\	Je-
=45-	=45-	=45-	=45-	=45-	=45-	=45-	=45-
1AA	ſi-	1E	.	.	.	1c	-sum
.	.	.	.	4B-\	-sum	.	.
.	.	.	.	1c	si-	.	.
*	*	*Xlig	*	*	*	*	*
*	*	*lig	*	*	*	*	*
2BB-/	-ne	1D	.	.	.	2d\	si-
2BB-/	pec-	.	.	4B-\	-ne	4d\	-ne
!	!	!	!	!LO:TX:t=P:problem=kreska pseudotaktowa	!	!LO:TX:t=P:problem=kreska pseudotaktowa	!
.	.	.	.	4A/	pec-	4d\	pec-
=46-	=46-	=46-	=46-	=46-	=46-	=46-	=46-
1C	-ca-	1E	.	1G	-ca-	2.c/	-ca-
.	.	.	.	.	.	4B-/	.
*	*	*Xlig	*	*	*	*	*
!LO:TX:t=P:problem=kreska pseudotaktowa	!	!LO:TX:t=P:problem=kreska pseudotaktowa	!	!LO:TX:t=P:problem=kreska pseudotaktowa	!	!LO:TX:t=P:problem=kreska pseudotaktowa	!
0.FF	-to	1F	-to.	1A	-to.	00A	-to
=47-	=47-	=47-	=47-	=47-	=47-	=47-	=47-
!	!	!LO:TX:t=P:problem=kreska pseudotaktowa	!	!	!	!	!
.	.	1c	Tu	2r	.	.	.
.	.	.	.	1c	Tu	.	.
.	.	1c	pe-	.	.	.	.
.	.	.	.	4c\	pe-	.	.
!	!	!	!	!LO:TX:t=P:problem=kreska pseudotaktowa	!	!	!
.	.	.	.	4c\	-pe-	.	.
=48-	=48-	=48-	=48-	=48-	=48-	=48-	=48-
1r	.	1c	-pe-	2c\	-ris-	.	.
!	!	!	!	!LO:TX:t=P:problem=kreska pseudotaktowa	!	!	!
.	.	.	.	2F/	-ti	.	.
1.F	Tu	1c	-ris-	2c\	cre-	00r	.
!	!	!	!	!LO:TX:t=P:problem=kreska pseudotaktowa	!	!	!
.	.	.	.	2A/	-a-	.	.
=49-	=49-	=49-	=49-	=49-	=49-	=49-	=49-
!	!	!LO:TX:t=P:problem=kreska pseudotaktowa	!	!	!	!	!
.	.	1F	-ti	2d\	-to-	.	.
4F\	pe-	.	.	4c\	.	.	.
!LO:TX:t=P:problem=kreska pseudotaktowa	!	!	!	!LO:TX:t=P:problem=kreska pseudotaktowa	!	!	!
4F\	-pe-	.	.	4B-\	.	.	.
2F\	-ris-	1c	cre-	2.A/	.	.	.
2C/	-ti	.	.	.	.	.	.
*	*	*	*	*custos:a	*	*	*
!	!	!	!	!LO:TX:t=P:problem=kreska pseudotaktowa	!	!	!
.	.	.	.	4G/	.	.	.
=50-	=50-	=50-	=50-	=50-	=50-	=50-	=50-
!	!	!	!	!LO:PB:g=original	!	!	!
1F	cre-	1A	-a-	4A/	.	.	.
.	.	.	.	4B-\	.	.	.
.	.	.	.	4c\	.	.	.
.	.	.	.	8B-\L	.	.	.
!	!	!	!	!LO:TX:t=P:problem=kreska pseudotaktowa	!	!	!
.	.	.	.	8A\J	.	.	.
*	*	*lig	*	*	*	*	*
!	!	!	!	!	!	!LO:TX:t=P:problem=kreska pseudotaktowa	!
2D/	-a-	1d	-to-	2.B-\	.	1r	.
4.G\	-to-	.	.	.	.	.	.
.	.	.	.	4A/	.	.	.
!LO:TX:t=P:problem=kreska pseudotaktowa	!	!	!	!	!	!	!
8F\	.	.	.	.	.	.	.
=51-	=51-	=51-	=51-	=51-	=51-	=51-	=51-
2E\	.	1c	.	2G/	.	2r	.
!	!	!	!	!LO:TX:t=P:problem=kreska pseudotaktowa	!	!	!
2F\	-rem	.	.	2A/	-rem	1f	Tu
*	*	*Xlig	*	*	*	*	*
*	*	*lig	*	*	*	*	*
4D/	cre-	1B-	.	1.d	Cre-	.	.
4C/	.	.	.	.	.	.	.
4BB-/	.	.	.	.	.	4f\	pe-
!LO:TX:t=P:problem=kreska pseudotaktowa	!	!	!	!	!	!LO:TX:t=P:problem=kreska pseudotaktowa	!
4C/	.	.	.	.	.	4f\	-pe-
=52-	=52-	=52-	=52-	=52-	=52-	=52-	=52-
*	*	*	*	*	*	*custos:c	*
4D/	.	1A	.	.	.	2f\	-ri-
4E\	.	.	.	.	.	.	.
!	!	!	!	!	!	!LO:TX:t=P:problem=kreska pseudotaktowa	!
!	!	!	!	!LO:TX:t=P:problem=kreska pseudotaktowa	!	!LO:PB:g=original	!
4F\	.	.	.	2c\	-a-	2c/	-sti
4E\	.	.	.	.	.	.	.
*	*	*Xlig	*	*	*	*	*
2D/	-a-	1B-	.	2.B-\	-to-	2f\	cre-
4.G\	-to-	.	.	.	.	2d\	-a-
.	.	.	.	4A/	.	.	.
!LO:TX:t=P:problem=kreska pseudotaktowa	!	!	!	!	!	!	!
8F\	.	.	.	.	.	.	.
=53-	=53-	=53-	=53-	=53-	=53-	=53-	=53-
!	!	!LO:TX:t=P:problem=kreska pseudotaktowa	!	!	!	!	!
4.E\	.	1c,<	-rem	1G	.	4.g\	-to-
*custos:C	*	*	*	*	*	*	*
8D/	.	.	.	.	.	8f\	.
!LO:TX:t=P:problem=kreska pseudotaktowa	!	!	!	!	!	!LO:TX:t=P:problem=kreska pseudotaktowa	!
!LO:PB:g=original	!	!	!	!	!	!	!
2C/	.	.	.	.	.	2e\	.
!	!	!LO:TX:t=P:problem=kreska pseudotaktowa	!	!LO:TX:t=P:problem=kreska pseudotaktowa	!	!	!
2D,</	-rem	1A	et	1F	-rem	2f\	-rem
2.AA/	et	.	.	.	.	2.c/	et
=54-	=54-	=54-	=54-	=54-	=54-	=54-	=54-
.	.	1c	Sal-	2.A/	et	.	.
4BB-/	.	.	.	.	.	4d\	Sal-
!LO:TX:t=P:problem=kreska pseudotaktowa	!	!	!	!	!	!LO:TX:t=P:problem=kreska pseudotaktowa	!
2C/	.	.	.	.	.	2e\	-va-
.	.	.	.	4G/	.	.	.
2D/	Sal-	1B-	-va-	2F/	Sal-	2f\	-to-
!	!	!	!	!LO:TX:t=P:problem=kreska pseudotaktowa	!	!	!
2E\	-va-	.	.	2G/	-ua-	4e\	.
.	.	.	.	.	.	4d\	.
=55-	=55-	=55-	=55-	=55-	=55-	=55-	=55-
*	*	*lig	*	*	*	*	*
1.F	-to-	1A	-to-	2.A/	-to-	4c/	.
.	.	.	.	.	.	4B-/	.
.	.	.	.	.	.	4A/	.
.	.	.	.	4B-\	.	8G/L	.
!	!	!	!	!	!	!LO:TX:t=P:problem=kreska pseudotaktowa	!
.	.	.	.	.	.	8F/J	.
*	*	*custos:F	*	*	*	*	*
.	.	1G	.	4c\	.	4G/	.
.	.	.	.	4d\	.	8A/L	.
!	!	!	!	!	!	!LO:N:acc=#	!
.	.	.	.	.	.	8Bn/J	.
2E,\	-rem	.	.	4e\	.	2.c/	.
.	.	.	.	8d\L	.	.	.
!	!	!	!	!LO:TX:t=P:problem=kreska pseudotaktowa	!	!	!
.	.	.	.	8e\J	.	.	.
*	*	*Xlig	*	*	*	*	*
=56-	=56-	=56-	=56-	=56-	=56-	=56-	=56-
*	*	*lig	*	*	*	*	*
!	!	!LO:LB:g=original	!	!	!	!	!
1D	mun-	1F	.	2.f\	.	.	.
.	.	.	.	.	.	4c/	-rem
!	!	!	!	!	!	!LO:N:acc=#	!
.	.	.	.	.	.	2Bn/	mun-
.	.	.	.	4F/	-rem	.	.
!LO:TX:t=P:problem=kreska pseudotaktowa	!	!	!	!	!	!LO:TX:t=P:problem=kreska pseudotaktowa	!
1C	-di	1E	.	1G	mun-	1c	-di
*	*	*Xlig	*	*	*	*	*
=57-	=57-	=57-	=57-	=57-	=57-	=57-	=57-
!	!	!	!	!LO:TX:t=P:problem=kreska pseudotaktowa	!	!	!
2r	.	1F	.	1A	-di	2r	.
!	!	!	!	!	!	!LO:TX:t=P:problem=kreska pseudotaktowa	!
2AA/	et	.	.	.	.	2c/	et
*	*	*lig	*	*	*	*	*
2BB-/	Sal-	1D	-rem	2F/	et	2d\	Sal-
!	!	!	!	!	!	!LO:TX:t=P:problem=kreska pseudotaktowa	!
2GG/	-va-	.	.	2G/	Sal-	2B-y/	-va-
=58-	=58-	=58-	=58-	=58-	=58-	=58-	=58-
!	!	!LO:TX:t=P:problem=kreska pseudotaktowa	!	!	!	!	!
1.AA	-to-	1C	.	2E/	-va-	2.c/	-to-
*	*	*	*	*custos:C	*	*	*
!	!	!	!	!LO:TX:t=P:problem=kreska pseudotaktowa	!	!	!
.	.	.	.	2F/	-to-	.	.
.	.	.	.	.	.	4B-/	.
*	*	*Xlig	*	*	*	*	*
*	*	*lig	*	*	*	*	*
!	!	!	!	!LO:LB:g=original	!	!	!
.	.	1F	mun-	2C/	-rem	4A/	.
.	.	.	.	.	.	4B-/	.
4GG/	-rem	.	.	1c\	mun-	4c/	.
!LO:TX:t=P:problem=kreska pseudotaktowa	!	!	!	!	!	!LO:TX:t=P:problem=kreska pseudotaktowa	!
4FF/	.	.	.	.	.	4d\	.
=59-	=59-	=59-	=59-	=59-	=59-	=59-	=59-
0C	mun-	1G	.	.	.	2e\	-rem
.	.	.	.	4B-\	.	1f	mun-
!	!	!	!	!LO:TX:t=P:problem=kreska pseudotaktowa	!	!	!
.	.	.	.	4A/	.	.	.
*	*	*Xlig	*	*	*	*	*
*	*	*lig	*	*	*	*	*
.	.	1G	-di	1G	.	.	.
!	!	!	!	!	!	!LO:TX:t=P:problem=kreska pseudotaktowa	!
.	.	.	.	.	.	2e\	.
=60-	=60-	=60-	=60-	=60-	=60-	=60-	=60-
!LO:TX:t=P:problem=kreska pseudotaktowa	!	!LO:TX:t=P:problem=kreska pseudotaktowa	!	!LO:TX:t=P:problem=kreska pseudotaktowa	!	!	!
1FF	-di	1F	.	1A	-di	2f,<\	-di
!	!	!	!	!	!	!LO:TX:t=P:problem=kreska pseudotaktowa	!
.	.	.	.	.	.	2c/	in
*	*	*Xlig	*	*	*	*	*
*	*	*	*	*	*	*custos:g	*
!	!	!LO:TX:t=P:problem=kreska pseudotaktowa	!	!	!	!	!
2r	.	1G	in	00r	.	2B-/	quo
!	!	!	!	!	!	!LO:TX:t=P:problem=kreska pseudotaktowa	!
!	!	!	!	!	!	!LO:LB:g=original	!
2C/	in	.	.	.	.	2G/	nos
=61-	=61-	=61-	=61-	=61-	=61-	=61-	=61-
*	*	*lig	*	*	*	*	*
2BB-/	quo	1G	quo	.	.	1d	non
2GG/	nos	.	.	.	.	.	.
1D	non	1F	.	.	.	2.A/	du-
!	!	!	!	!	!	!LO:TX:t=P:problem=kreska pseudotaktowa	!
.	.	.	.	.	.	4B-/	.
*	*	*Xlig	*	*	*	*	*
=62-	=62-	=62-	=62-	=62-	=62-	=62-	=62-
*	*	*lig	*	*	*	*	*
2AA/	du-	1E	.	.	.	2c/	.
2AA/	-bi-	.	.	.	.	2c/	-bi-
1BB-	-ta-	1D	.	0r	.	2B-/	-ta-
.	.	.	.	.	.	4A/	.
!	!	!	!	!	!	!LO:TX:t=P:problem=kreska pseudotaktowa	!
.	.	.	.	.	.	4G/	.
*	*	*Xlig	*	*	*	*	*
=63-	=63-	=63-	=63-	=63-	=63-	=63-	=63-
*custos:F	*	*	*	*	*	*	*
!LO:TX:t=P:problem=kreska pseudotaktowa	!	!	!	!	!	!	!
*	*	*lig	*	*	*	*	*
1FF	-mus.	1C	.	.	.	4A/	.
.	.	.	.	.	.	4B-/	.
.	.	.	.	.	.	4c/	.
.	.	.	.	.	.	8B-/L	.
!	!	!	!	!	!	!LO:TX:t=P:problem=kreska pseudotaktowa	!
.	.	.	.	.	.	8c/J	.
!LO:LB:g=original	!	!	!	!LO:TX:t=P:problem=kreska pseudotaktowa	!	!	!
00r	.	1BB-	.	1r	.	4d\	.
.	.	.	.	.	.	4e\	.
.	.	.	.	.	.	4f\	.
.	.	.	.	.	.	4d\	.
*	*	*Xlig	*	*	*	*	*
=64-	=64-	=64-	=64-	=64-	=64-	=64-	=64-
!	!	!LO:TX:t=P:problem=kreska pseudotaktowa	!	!	!	!	!
.	.	1C	nos	2r	.	1e	.
.	.	.	.	2G/	in	.	.
!	!	!LO:TX:t=P:problem=kreska pseudotaktowa	!	!	!	!LO:TX:t=P:problem=kreska pseudotaktowa	!
.	.	1F	non	2F/	quo	1A	-mus
!	!	!	!	!LO:TX:t=P:problem=kreska pseudotaktowa	!	!	!
.	.	.	.	2D/	nos	.	.
=65-	=65-	=65-	=65-	=65-	=65-	=65-	=65-
.	.	1F	du-	1A	non	2r	.
.	.	.	.	.	.	2c/	in
*	*	*lig	*	*	*	*	*
00r	.	1G	-bi-	2G/	du-	2B-/	quo
.	.	.	.	4F/	.	4G/	nos
!	!	!	!	!LO:TX:t=P:problem=kreska pseudotaktowa	!	!LO:TX:t=P:problem=kreska pseudotaktowa	!
.	.	.	.	4E/	.	4g\	.
=66-	=66-	=66-	=66-	=66-	=66-	=66-	=66-
.	.	1A	.	2D/	.	4f\	non
.	.	.	.	.	.	4d\	du-
!	!	!	!	!	!	!LO:TX:t=P:problem=kreska pseudotaktowa	!
.	.	.	.	2C/	-bi-	2e-X\	-bi-
*	*	*Xlig	*	*	*	*	*
*	*	*lig	*	*	*	*	*
.	.	1B-	-ta-	2.BB-/	-ta-	4d\	-ta-
.	.	.	.	.	.	4d\	-mus
.	.	.	.	.	.	1f\	non
!	!	!	!	!LO:TX:t=P:problem=kreska pseudotaktowa	!	!	!
.	.	.	.	4C/	.	.	.
=67-	=67-	=67-	=67-	=67-	=67-	=67-	=67-
.	.	1A	.	4D/	.	.	.
.	.	.	.	4E/	.	.	.
!	!	!	!	!	!	!LO:TX:t=P:problem=kreska pseudotaktowa	!
.	.	.	.	1F	.	2c/	du-
*	*	*Xlig	*	*	*	*	*
!LO:TX:t=P:problem=kreska pseudotaktowa	!	!	!	!	!	!	!
0r	.	1G	.	.	.	2d\	-bi-
.	.	.	.	2E/	.	4c/	-ta-
.	.	.	.	.	.	4B-/	.
=68-	=68-	=68-	=68-	=68-	=68-	=68-	=68-
!	!	!LO:TX:t=P:problem=kreska pseudotaktowa	!	!LO:TX:t=P:problem=kreska pseudotaktowa	!	!LO:TX:t=P:problem=kreska pseudotaktowa	!
.	.	1F	-mus.	1F	-mus	1A	-mus.
*	*	*lig	*	*	*	*	*
1.F	O-	1A	O-	2r	.	1.c	O-
.	.	.	.	1c\	O-	.	.
=69-	=69-	=69-	=69-	=69-	=69-	=69-	=69-
*	*	*custos:A	*	*	*	*	*
.	.	1G	.	.	.	.	.
!	!	!	!	!LO:TX:t=P:problem=kreska pseudotaktowa	!	!	!
2E\	-ra	.	.	2c\	-ra	2c\	-ra
*	*	*Xlig	*	*	*	*	*
*	*	*lig	*	*	*	*	*
!	!	!LO:PB:g=original	!	!	!	!LO:TX:t=P:problem=kreska pseudotaktowa	!
1F	pro	1A	.	0A	pro	1c	pro
=70-	=70-	=70-	=70-	=70-	=70-	=70-	=70-
*	*	*	*	*	*	*custos:c	*
2.D/	no-	1F	.	.	.	0d	no-
4C/	.	.	.	.	.	.	.
*	*	*Xlig	*	*	*	*	*
!	!	!LO:TX:t=P:problem=kreska pseudotaktowa	!	!	!	!	!
1BB-	.	1F	-ra	1B-	no-	.	.
=71-	=71-	=71-	=71-	=71-	=71-	=71-	=71-
!LO:TX:t=P:problem=kreska pseudotaktowa	!	!	!	!LO:TX:t=P:problem=kreska pseudotaktowa	!	!LO:LB:g=original	!
1F,<	-bis	1A	pro	1A	-bis	1.c	-bis
*	*	*	*	*custos:d	*	*	*
1FF	pro	1A	no-	0c	pro	.	.
!	!	!	!	!	!	!LO:TX:t=P:problem=kreska pseudotaktowa	!
.	.	.	.	.	.	2d\	pro
=72-	=72-	=72-	=72-	=72-	=72-	=72-	=72-
!	!	!LO:TX:t=P:problem=kreska pseudotaktowa	!	!	!	!	!
1C	no-	1G	-bis	.	.	1e-X	no-
*	*	*lig	*	*	*	*	*
!	!	!	!	!LO:LB:g=original	!	!	!
1GG	-bis	1B-	Ie	2d\	no-	2d\	-bis
*	*	*	*	*	*	*lig	*
!	!	!	!	!LO:TX:t=P:problem=kreska pseudotaktowa	!	!	!
.	.	.	.	2d\	-bis	1g\	JE-
=73-	=73-	=73-	=73-	=73-	=73-	=73-	=73-
2.AA/	Ie-	1A	.	0c	Je-	.	.
.	.	.	.	.	.	1f	.
4BB-/	.	.	.	.	.	.	.
*	*	*Xlig	*	*	*	*Xlig	*
1C	.	1G	.	.	.	.	.
.	.	.	.	.	.	2eny\	-SVM
=74-	=74-	=74-	=74-	=74-	=74-	=74-	=74-
!	!	!LO:TX:t=P:problem=kreska pseudotaktowa	!	!	!	!LO:TX:t=P:problem=kreska pseudotaktowa	!
2FF/	-sum,	1A	SVM	2c\	-sum	1f	.
1F	tu-	.	.	1A	tu-	.	.
.	.	1F	tu-	.	.	00r	.
4E\	-um	.	.	4G/	-um	.	.
!LO:TX:t=P:problem=kreska pseudotaktowa	!	!	!	!LO:TX:t=P:problem=kreska pseudotaktowa	!	!	!
4F\	di-	.	.	4A/	di-	.	.
=75-	=75-	=75-	=75-	=75-	=75-	=75-	=75-
!	!	!LO:TX:t=P:problem=kreska pseudotaktowa	!	!LO:N:acc=#	!	!	!
2G\	-le-	1E	-um	2Bn\	-lec-	.	.
2E\	-ctum	.	.	2c\	-tum	.	.
2.D/	fi-	1F	di-	2.c\	fi-	.	.
!	!	!	!	!LO:TX:t=P:problem=kreska pseudotaktowa	!	!	!
!LO:TX:t=P:problem=kreska pseudotaktowa	!	!	!	!LO:N:acc=#	!	!	!
4D/	-li-	.	.	4Bn\	-li-	.	.
=76-	=76-	=76-	=76-	=76-	=76-	=76-	=76-
1.C,<	-um,	1G	-lec-	2c,\	-um	.	.
.	.	.	.	1G	tu-	.	.
!	!	!LO:TX:t=P:problem=kreska pseudotaktowa	!	!	!	!	!
.	.	1E	-tum	.	.	2r	.
2C/	di-	.	.	4F/	-um	1c\	tu-
!	!	!	!	!LO:TX:t=P:problem=kreska pseudotaktowa	!	!	!
.	.	.	.	4G/	di-	.	.
=77-	=77-	=77-	=77-	=77-	=77-	=77-	=77-
2AA/	-lec-	1F	Fi-	2A/	-lec-	.	.
*custos:B	*	*	*	*	*	*	*
!	!	!	!	!LO:TX:t=P:problem=kreska pseudotaktowa	!	!	!
2AA/	-tum	.	.	2A/	-tum	4B-/	-um
!	!	!	!	!	!	!LO:TX:t=P:problem=kreska pseudotaktowa	!
.	.	.	.	.	.	4c/	de-
*	*	*lig	*	*	*	*	*
!LO:LB:g=original	!	!	!	!	!	!	!
2.BB-/	fi-	1D	-li-	1.F	fi-	2d\	-lec-
.	.	.	.	.	.	2B-/	-tum
4BB-/	-li-	.	.	.	.	.	.
=78-	=78-	=78-	=78-	=78-	=78-	=78-	=78-
!LO:TX:t=P:problem=kreska pseudotaktowa	!	!	!	!	!	!	!
1FF	-um,	1C	.	.	.	2.A/	fi-
.	.	.	.	2F/	-li-	.	.
!	!	!	!	!	!	!LO:TX:t=P:problem=kreska pseudotaktowa	!
.	.	.	.	.	.	4A/	-li-
*	*	*Xlig	*	*	*	*	*
!	!	!LO:TX:t=P:problem=kreska pseudotaktowa	!	!LO:TX:t=P:problem=kreska pseudotaktowa	!	!	!
1r	.	1C	-um	1E	-um	2G/	-um
.	.	.	.	.	.	2.c/	Ut
=79-	=79-	=79-	=79-	=79-	=79-	=79-	=79-
2.C/	Ut	1G	Ut	2r	.	.	.
.	.	.	.	.	.	4d\	.
.	.	.	.	2.G/	Ut	4e\	.
!	!	!	!	!	!	!LO:TX:t=P:problem=kreska pseudotaktowa	!
4D/	.	.	.	.	.	4f\	.
4E\	.	1G	li-	.	.	2g\	.
4F\	.	.	.	4A/	.	.	.
!LO:TX:t=P:problem=kreska pseudotaktowa	!	!	!	!	!	!	!
2G\	.	.	.	4B-y\	.	2.G/	li-
!	!	!	!	!LO:TX:t=P:problem=kreska pseudotaktowa	!	!	!
.	.	.	.	4c\	.	.	.
=80-	=80-	=80-	=80-	=80-	=80-	=80-	=80-
*	*	*lig	*	*	*	*	*
2.GG/	li-	1G	-be-	2d\	.	.	.
.	.	.	.	.	.	4A/	.
.	.	.	.	2.D/	li-	4B-/	.
!	!	!	!	!	!	!LO:TX:t=P:problem=kreska pseudotaktowa	!
4AA/	.	.	.	.	.	4c/	.
4BB-/	.	1F	.	.	.	1.d	.
4C/	.	.	.	4E/	.	.	.
4D/	.	.	.	4F/	.	.	.
!LO:TX:t=P:problem=kreska pseudotaktowa	!	!	!	!LO:TX:t=P:problem=kreska pseudotaktowa	!	!	!
4C/	.	.	.	4E/	.	.	.
*	*	*Xlig	*	*	*	*	*
=81-	=81-	=81-	=81-	=81-	=81-	=81-	=81-
*	*	*	*	*custos:e	*	*	*
!	!	!LO:TX:t=P:problem=kreska pseudotaktowa	!	!	!	!	!
2BB-/	.	1G	-ret	2D/	.	.	.
!	!	!	!	!LO:LB:g=original	!	!	!
4AA/	-be-	.	.	4E/	-be-	4c/	-be-
!	!	!	!	!LO:TX:t=P:problem=kreska pseudotaktowa	!	!LO:TX:t=P:problem=kreska pseudotaktowa	!
4GG/	-ret	.	.	4E/	-ret	4B-/	-ret
*	*	*lig	*	*	*	*	*
2D/	nos	1A	nos	2F/	nos	2A/	nos
!LO:TX:t=P:problem=kreska pseudotaktowa	!	!	!	!	!	!	!
2AA/	ab	.	.	2c\	ab	2c/	ab
=82-	=82-	=82-	=82-	=82-	=82-	=82-	=82-
2.BB-/	o-	1G	.	2.B-\	om-	2.d\	o-
!	!	!	!	!LO:TX:t=P:problem=kreska pseudotaktowa	!	!	!
4C/	.	.	.	4B-\	-ni-	4e\	.
*	*	*Xlig	*	*	*	*	*
!	!	!LO:TX:t=P:problem=kreska pseudotaktowa	!	!	!	!	!
4D/	.	1F	.	2.A/	-bus	4f\	.
4E\	.	.	.	.	.	4g\	.
*	*	*	*	*	*	*custos:g	*
1F\	.	.	.	.	.	1a\	.
.	.	.	.	4B-\	.	.	.
=83-	=83-	=83-	=83-	=83-	=83-	=83-	=83-
*	*	*custos:G	*	*	*	*	*
.	.	1F	ab-	2c\	.	.	.
!	!	!	!	!LO:TX:t=P:problem=kreska pseudotaktowa	!	!LO:LB:g=original	!
4E\	-mni-	.	.	2d\	ma-	4g\	-mni-
!LO:TX:t=P:problem=kreska pseudotaktowa	!	!	!	!	!	!LO:TX:t=P:problem=kreska pseudotaktowa	!
4D/	-bus	.	.	.	.	4f\	-bus
*	*	*lig	*	*	*	*	*
!	!	!LO:LB:g=original	!	!	!	!	!
2.C/	ma-	1G	-o-	2G/	-lis	4.e\	ma-
.	.	.	.	.	.	8f\	.
!	!	!	!	!	!	!LO:TX:t=P::problem=kreska pseudotaktowa&colon;między nutą a kropką	!
.	.	.	.	4r	.	2.g\	.
!	!	!	!	!LO:TX:t=P:problem=kreska pseudotaktowa	!	!	!
4BB-/	.	.	.	4G/	ab	.	.
=84-	=84-	=84-	=84-	=84-	=84-	=84-	=84-
2AA/	.	1A	.	2c\	om-	.	.
.	.	.	.	.	.	8f\L	.
.	.	.	.	.	.	8e\J	.
!	!	!	!	!	!	!LO:TX:t=P::problem=kreska pseudotaktowa&colon;między nutą a kropką	!
4GG/	.	.	.	4B-\	-ni-	2.f\	.
!LO:TX:t=P:problem=kreska pseudotaktowa	!	!	!	!LO:TX:t=P:problem=kreska pseudotaktowa	!	!	!
4FF/	.	.	.	4A/	-bus	.	.
*	*	*Xlig	*	*	*	*	*
*	*	*lig	*	*	*	*	*
1GG	.	1B-	.	1G	ma-	.	.
.	.	.	.	.	.	8e\L	.
.	.	.	.	.	.	8d\J	.
!	!	!	!	!	!	!LO:TX:t=P:problem=kreska pseudotaktowa	!
.	.	.	.	.	.	2e\	.
=85-	=85-	=85-	=85-	=85-	=85-	=85-	=85-
*custos:C	*	*	*	*	*	*	*
!LO:TX:t=P:problem=kreska pseudotaktowa	!	!	!	!	!	!	!
!	!	!	!	!LO:TX:t=P:problem=kreska pseudotaktowa	!	!	!
1FF	lis	1A	.	0C	-lis	2f\	lis
.	.	.	.	.	.	2F/	ab
*	*	*Xlig	*	*	*	*	*
*	*	*lig	*	*	*	*	*
!LO:LB:g=original	!	!	!	!	!	!	!
2r	.	1G	-mni-	.	.	2.c/	o-
!LO:TX:t=P:problem=kreska pseudotaktowa	!	!	!	!	!	!	!
2C/	ab	.	.	.	.	.	.
!	!	!	!	!	!	!LO:TX:t=P:problem=kreska pseudotaktowa	!
.	.	.	.	.	.	4B-/	.
=86-	=86-	=86-	=86-	=86-	=86-	=86-	=86-
2.F\	o-	1F	.	4r	.	4A/	.
.	.	.	.	4c\	ab	4G/	.
!	!	!	!	!LO:TX:t=P::problem=kreska pseudotaktowa&colon;między nutą a kropką	!	!	!
.	.	.	.	2.f\	o-	2.A/	.
4E\	.	.	.	.	.	.	.
*	*	*Xlig	*	*	*	*	*
!	!	!LO:TX:t=P:problem=kreska pseudotaktowa	!	!	!	!	!
4D/	.	1F	-bus	.	.	.	.
4C/	.	.	.	4e\	.	8B-/L	.
.	.	.	.	.	.	8c/J	.
4BB-/	.	.	.	4d\	.	4d\	.
!LO:TX:t=P:problem=kreska pseudotaktowa	!	!	!	!	!	!LO:TX:t=P:problem=kreska pseudotaktowa	!
4C/	.	.	.	8c\L	.	4e\	.
!	!	!	!	!LO:TX:t=P:problem=kreska pseudotaktowa	!	!	!
.	.	.	.	8B-\J	.	.	.
=87-	=87-	=87-	=87-	=87-	=87-	=87-	=87-
*	*	*lig	*	*	*	*	*
4D/	.	1D	ma-	4A/	.	2f\	.
*	*	*	*	*custos:a	*	*	*
4E\	.	.	.	4G/	.	.	.
!	!	!	!	!LO:TX:t=P::problem=kreska pseudotaktowa&colon;między nutą a kropką	!	!	!
!	!	!	!	!LO:LB:g=original	!	!	!
1F	.	.	.	2.A/	.	4e\	-mni-
!	!	!	!	!	!	!LO:TX:t=P:problem=kreska pseudotaktowa	!
.	.	.	.	.	.	4d\	-bus
.	.	1F	.	.	.	2.c/	ma-
.	.	.	.	4B-\	.	.	.
4E\	-mni-	.	.	1c\	.	.	.
!LO:TX:t=P:problem=kreska pseudotaktowa	!	!	!	!	!	!LO:TX:t=P:problem=kreska pseudotaktowa	!
4D/	-bus	.	.	.	.	4d\	.
*	*	*Xlig	*	*	*	*	*
=88-	=88-	=88-	=88-	=88-	=88-	=88-	=88-
0C	ma-	1G	.	.	.	2e\	.
.	.	.	.	4B-\	-mni-	1f	.
!	!	!	!	!LO:TX:t=P:problem=kreska pseudotaktowa	!	!	!
.	.	.	.	4A/	-bus	.	.
*	*	*lig	*	*	*	*	*
.	.	1G	-lis.	1G	ma-	.	.
.	.	.	.	.	.	2e\	.
=89-	=89-	=89-	=89-	=89-	=89-	=89-	=89-
0FF;	-lis.	0F	.	0A	-lis.	0f	-lis.
*	*	*Xlig	*	*	*	*	*
=-	=-	=-	=-	=-	=-	=-	=-
*-	*-	*-	*-	*-	*-	*-	*-
!!!system-decoration: [(s1,s2,s3,s4)]
!!!RDF**kern: < = below
!!!RDF**kern: > = above
!!!ENC: Berenika Jozajtis
!!!END: 2022-02-11
!!!ENC: Marta Chmielewska
!!!END: 2022-02-17
